X: 86
T:Log Cabin
% Nottingham Music Database
S:Kevin Briggs, via EF
M:4/4
L:1/4
K:G
GB |"G"d2 "D7"ed|"G"dB2G|"C"AG GE|"G"D2 -"D7"D2|"G"GG GB|"Em"dd dB|
"Am"Ad/2d/2 "Am/g"dd|"D7/f+"ed "D7"Bc|"G"d2 "D7"ed|"G"dB2G|"C"AG GE|\
"G"D2 "D7"GA|
"G"Bd "Em"dB|"Am"Ac "D7"BA|"G"G3/2A/2 "D7"BA|"G7"G"f"G "e"A"d"B|"C(7)"c2 c2|\
"C(7)"ee2e|"G"dd dB|
"D7"d2 BA|"G"GG GB|"Em"dd dB|"Am"Ad/2d/2 "Am/g"dd|"D7/f+"ed "D7"Bc|\
"G"d2 "D7"ed|
"G"dB2G|"C"AG GE|"G"D2 "D7"GA|"G"Bd "Em"dB|"Am"Ac "D7"BA|"G"G3/2A/2 "D7"BA|\
"G"G2 ||


